X:1
T:Bertha, 66.66.88
T:Bertha, 66.66.88
T:W. Heslop, before 1890
T:Public Domain Courtesy of the Cyber Hymnal™
C:W. Heslop, before 1890
Z:Public Domain
Z:Courtesy of the Cyber Hymnal™
%%score ( 1 2 ) ( 3 4 )
L:1/8
M:3/4
K:G
V:1 treble 
V:2 treble 
V:3 bass 
V:4 bass 
V:1
 G2 [GA]2 [GB]2 | [Ad]4 [Fc]2 | [GB]4 [GB]2 | ([GB]2 [FA]2) [DB]2 | [DE]2 [Cc]2 [DB]2 | [DA]6 | %6
 [DG]2 [DA]2 [DB]2 | (A2 F2) [DG]2 | [DA]4 [DB]2 | (A2 d2) [DB]2 | (A2 F2) [^CE]2 | D4 [Dd]2 | %12
 (d2 c2) [EB]2 | [Ec]4 [Ec]2 | (c2 B2) [DA]2 | [DB]4 [DG]2 | (G2 A2) [GB]2 | (c2 d2) [Ge]2 | %18
 [GB]4 [FA]2 | G6 |] %20
V:2
 G2 x4 | x6 | x6 | x6 | x6 | x6 | x6 | D4 x2 | x6 | D4 x2 | D4 x2 | D4 x2 | E4 x2 | x6 | D4 x2 | %15
 x6 | D4 x2 | G4 x2 | x6 | G6 |] %20
V:3
 [G,B,]2 [G,C]2 [G,D]2 | [F,D]4 [D,D]2 | [G,D]4 [E,^C]2 | [D,C]4 [B,,G,]2 | [C,G,]2 [A,,F,]2 G,2 | %5
 [D,F,]6 | [B,,G,]2 [D,F,]2 G,2 | [F,A,]2 B,2 B,2 | [F,A,]4 [^E,^G,]2 | [F,A,]4 G,2 | %10
 A,4 [A,,G,]2 | [D,F,]4 [B,,G,]2 | [E,^G,]4 [E,G,]2 | A,4 [A,,G,]2 | [D,F,]4 [D,F,]2 | %15
 G,4 [G,B,]2 | ([G,B,]2 [F,A,]2) [=F,D]2 | ([F,C]2 [D,B,]2) [^C,^A,]2 | (B,2 D2) [D,C]2 | %19
 [G,B,]6 |] %20
V:4
 x6 | x6 | x6 | x6 | x4 (B,,C,) | x6 | x4 G,2 | x2 B,2 B,2 | x6 | x4 G,2 | (F,2 A,2) x2 | x6 | x6 | %13
 A,4 x2 | x6 | G,4 x2 | x6 | x6 | D,4 x2 | x6 |] %20

